X: 7
T: Coleman's
Z: GoPlayer
S: https://thesession.org/tunes/409#setting47908
R: slip jig
M: 9/8
L: 1/8
K: Amix
M:3/4
!fermata!B!fermata!d eA -!>!A2|{G}ED EA -!>!AB|Scd eA -!>!A2|{G}ED EG- {A}GF|
GB eA -!>!A2|{G}ED EA -!>!AB|cd eA -!>!A2|{G}ED EG- {A}GF||
GB ea -{b}ag|ag ea -{b}a2|ge dg -{a}gf|g2 ag {a}ge|
dg ea -{b}ag|ag ea -{b}a2|ge dg -{a}gf|O!slide!g2 ag {a}ge||
dg eA -!>!A2|{G}ED EA -!>!A!D.S.!B||
O!slide!g2 ag {a}ge|dg e!fermata!A3||

